%
(Header)
(Generated by gcodetools from Inkscape.)
(Using default header. To add your own header create file "header" in the output dir.)
M3
(Header end.)
G21 (All units in mm)

(Start cutting path id: path5313)
(Change tool to Default tool)

G00 Z5.000000
G00 X15.394725 Y42.335495

G01 Z-1.000000 F100.0(Penetrate)
G01 X22.949543 Y42.335495 Z-1.000000 F400.000000
G01 X42.620579 Y49.462682 Z-1.000000
G01 X45.328911 Y42.050406 Z-1.000000
G01 X52.171010 Y41.907864 Z-1.000000
G01 X52.171010 Y20.526302 Z-1.000000
G01 X46.041629 Y20.526302 Z-1.000000
G01 X25.515330 Y13.114037 Z-1.000000
G01 X23.092088 Y20.383757 Z-1.000000
G01 X15.394725 Y20.383757 Z-1.000000
G01 X15.394725 Y42.335495 Z-1.000000
G00 Z5.000000

(End cutting path id: path5313)


(Footer)
M5
G00 X0.0000 Y0.0000
M2
(Using default footer. To add your own footer create file "footer" in the output dir.)
(end)
%